Origami/24x24/apps/kdeconnect.svg

<svg width="24" height="24" version="1" xmlns="http://www.w3.org/2000/svg">
 <rect transform="matrix(0,-1,-1,0,0,0)" x="-22.5" y="-19" width="20" height="15" rx="1" ry="1" style="opacity:.2"/>
 <rect transform="matrix(0,-1,-1,0,0,0)" x="-22" y="-19" width="20" height="15" rx="1" ry="1" style="fill:#8e8e8e"/>
 <rect x="9.5" y="3" width="4" height="1" rx=".5" ry=".5" style="opacity:.5"/>
 <rect x="5" y="5" width="13" height="14" rx="1" ry="1" style="opacity:.5"/>
 <path d="m5 2c-0.554 0-1 0.446-1 1v0.5c0-0.554 0.446-1 1-1h13c0.554 0 1 0.446 1 1v-0.5c0-0.554-0.446-1-1-1z" style="fill:#ffffff;opacity:.2"/>
 <path d="m12.994142 5.0000013v0.00195l0.01172-0.00195h-0.01172z" style="fill:#ffffff"/>
 <path d="m14.800781 6.500003-1.80664 3.1992188v-3.1972657l-1.994141 0.3964844v6.5136715l1.994141-0.3125v-2.599609l1.80664 3 2.1875-1-2.488281-2.400391 2.511719-2.599609-2.210938-1zm-6.519531 1.2011719c-0.0246 3e-3 -0.051713 0.00874-0.070312 0.027344l-0.8535161 0.847656c-0.035792 0.0357-0.039984 0.089612-0.013672 0.1328125l0.9082032 1.4882816c-0.213336 0.346448-0.3789946 0.72368-0.4902343 1.125l-1.6738282 0.345703c-0.05084 0.0104-0.0878906 0.05933-0.0878906 0.111328v1.197265c0 0.0507 0.038572 0.09377 0.087891 0.105469l1.6230469 0.390625c0.102124 0.45152 0.2747305 0.876672 0.5039063 1.263672l-0.9453126 1.429688c-0.02868 0.0435-0.023316 0.101771 0.013672 0.138672l0.8535157 0.847656c0.036 0.0357 0.091566 0.03977 0.1347656 0.01367l1.4765625-0.890625c0.3646796 0.217976 0.7624656 0.384786 1.1855466 0.490234l0.345703 1.646484c0.0108 0.0508 0.05307 0.08789 0.105469 0.08789h1.207031c0.0504 0 0.09347-0.03313 0.105469-0.08203l0.410156-1.658203c0.42644-0.110472 0.823533-0.288804 1.189453-0.513672l1.482422 0.964844c0.0438 0.0282 0.101472 0.02263 0.138672-0.01367l0.849609-0.845704c0.036-0.0357 0.04398-0.09186 0.01758-0.134765l-0.580078-0.947266-0.189453 0.05859c-0.0276 0.0084-0.05802-0.0036-0.07422-0.02734 0 0-0.179449-0.244084-0.322265-0.4375-0.05957-0.09064-0.550829-0.687765-0.890625-1.121093a3 3 0 0 1 -2.728517 1.757812 3 3 0 0 1 -3 -3 3 3 0 0 1 1.400391 -2.5351562v-1.5898438c-0.22315 0.082948-0.369879 0.1843415-0.5742191 0.3007812l-1.4765625-0.9589843c-0.0219-0.0144-0.044059-0.018025-0.068359-0.015625z" style="opacity:.2"/>
 <path d="m14.800781 6l-1.80664 3.1992188v-3.1972657l-1.994141 0.3964844v6.5136715l1.994141-0.3125v-2.599609l1.80664 3 2.1875-1-2.488281-2.4003906 2.511719-2.5996094-2.210938-1zm-6.519531 1.2011719c-0.0246 3e-3 -0.0517125 0.0087397-0.0703125 0.0273437l-0.8535156 0.8476563c-0.035792 0.0357-0.0399839 0.089612-0.0136719 0.1328125l0.9082031 1.4882812c-0.213336 0.3464484-0.3789946 0.7236804-0.4902343 1.1250004l-1.6738282 0.345703c-0.05084 0.0104-0.0878906 0.05933-0.0878906 0.111328v1.197265c0 0.050701 0.0385716 0.093771 0.0878906 0.105469l1.6230469 0.390625c0.102124 0.45152 0.2747305 0.876672 0.5039063 1.263672l-0.9453126 1.429688c-0.0286799 0.0435-0.0233161 0.101771 0.0136719 0.138672l0.8535157 0.847656c0.0359999 0.0357 0.0915659 0.039772 0.1347656 0.013672l1.4765625-0.890625c0.3646801 0.217976 0.7624661 0.384786 1.1855471 0.490234l0.345703 1.646484c0.0108 0.0508 0.05307 0.087891 0.105469 0.087891h1.207031c0.0504 0 0.09347-0.033131 0.105469-0.082031l0.410156-1.658203c0.42644-0.110472 0.823533-0.288804 1.189453-0.513672l1.482422 0.964844c0.0438 0.028199 0.101472 0.022628 0.138672-0.013672l0.849609-0.845704c0.036-0.0357 0.043978-0.09186 0.017578-0.134765l-0.580078-0.947266-0.189453 0.058594c-0.0276 0.0084-0.058019-0.003604-0.074219-0.027344 0 0-0.179449-0.244084-0.322265-0.4375-0.05957-0.09064-0.550829-0.687765-0.890625-1.121093a3 3 0 0 1 -2.728516 1.757812 3 3 0 0 1 -3 -3 3 3 0 0 1 1.400391 -2.5351562v-1.5898438c-0.22315 0.082948-0.369879 0.1843415-0.5742191 0.3007812l-1.4765625-0.9589843c-0.0219-0.0144-0.0440594-0.018025-0.0683594-0.015625z" style="fill:#ffffff"/>
</svg>

<svg xmlns="http://www.w3.org/2000/svg" width="24" height="24" version="1">
 <rect style="opacity:0.2" width="20" height="15" x="-22.5" y="-19" rx="1" ry="1" transform="matrix(0,-1,-1,0,0,0)"/>
 <rect style="fill:#8e8e8e" width="20" height="15" x="-22" y="-19" rx="1" ry="1" transform="matrix(0,-1,-1,0,0,0)"/>
 <rect style="opacity:0.5" width="4" height="1" x="9.5" y="3" rx=".5" ry=".5"/>
 <rect style="opacity:0.5" width="13" height="14" x="5" y="5" rx="1" ry="1"/>
 <path style="opacity:0.2;fill:#ffffff" d="M 5,2 C 4.446,2 4,2.446 4,3 V 3.5 C 4,2.946 4.446,2.5 5,2.5 H 18 C 18.554,2.5 19,2.946 19,3.5 V 3 C 19,2.446 18.554,2 18,2 Z"/>
 <path style="fill:#ffffff" d="m 12.994142,5.0000013 0,0.00195 0.01172,-0.00195 -0.01172,0 z"/>
 <path style="opacity:0.2" d="m 14.800781,6.500003 -1.80664,3.1992188 0,-3.1972657 L 11,6.8984405 l 0,6.5136715 1.994141,-0.3125 0,-2.599609 1.80664,3 2.1875,-1 L 14.5,10.099612 l 2.511719,-2.599609 -2.210938,-1 z M 8.28125,7.7011749 c -0.0246,0.003 -0.051713,0.00874 -0.070312,0.027344 l -0.8535161,0.847656 c -0.035792,0.0357 -0.039984,0.089612 -0.013672,0.1328125 l 0.9082032,1.4882816 c -0.213336,0.346448 -0.3789946,0.72368 -0.4902343,1.125 L 6.0878906,11.667972 C 6.0370506,11.678372 6,11.727302 6,11.7793 l 0,1.197265 c 0,0.0507 0.038572,0.09377 0.087891,0.105469 l 1.6230469,0.390625 c 0.102124,0.45152 0.2747305,0.876672 0.5039063,1.263672 l -0.9453126,1.429688 c -0.02868,0.0435 -0.023316,0.101771 0.013672,0.138672 l 0.8535157,0.847656 c 0.036,0.0357 0.091566,0.03977 0.1347656,0.01367 l 1.4765625,-0.890625 c 0.3646796,0.217976 0.7624656,0.384786 1.1855466,0.490234 l 0.345703,1.646484 c 0.0108,0.0508 0.05307,0.08789 0.105469,0.08789 l 1.207031,0 c 0.0504,0 0.09347,-0.03313 0.105469,-0.08203 l 0.410156,-1.658203 c 0.42644,-0.110472 0.823533,-0.288804 1.189453,-0.513672 l 1.482422,0.964844 c 0.0438,0.0282 0.101472,0.02263 0.138672,-0.01367 l 0.849609,-0.845704 c 0.036,-0.0357 0.04398,-0.09186 0.01758,-0.134765 l -0.580078,-0.947266 -0.189453,0.05859 c -0.0276,0.0084 -0.05802,-0.0036 -0.07422,-0.02734 0,0 -0.179449,-0.244084 -0.322265,-0.4375 -0.05957,-0.09064 -0.550829,-0.687765 -0.890625,-1.121093 A 3,3 0 0 1 12,15.500003 a 3,3 0 0 1 -3,-3 3,3 0 0 1 1.400391,-2.5351562 l 0,-1.5898438 C 10.177241,8.457951 10.030512,8.5593445 9.8261719,8.6757842 L 8.3496094,7.7167999 c -0.0219,-0.0144 -0.044059,-0.018025 -0.068359,-0.015625 z"/>
 <path style="fill:#ffffff" d="M 14.800781 6 L 12.994141 9.1992188 L 12.994141 6.0019531 L 11 6.3984375 L 11 12.912109 L 12.994141 12.599609 L 12.994141 10 L 14.800781 13 L 16.988281 12 L 14.5 9.5996094 L 17.011719 7 L 14.800781 6 z M 8.28125 7.2011719 C 8.25665 7.2041719 8.2295375 7.2099116 8.2109375 7.2285156 L 7.3574219 8.0761719 C 7.3216299 8.1118719 7.317438 8.1657839 7.34375 8.2089844 L 8.2519531 9.6972656 C 8.0386171 10.043714 7.8729585 10.420946 7.7617188 10.822266 L 6.0878906 11.167969 C 6.0370506 11.178369 6 11.227299 6 11.279297 L 6 12.476562 C 6 12.527263 6.0385716 12.570333 6.0878906 12.582031 L 7.7109375 12.972656 C 7.8130615 13.424176 7.985668 13.849328 8.2148438 14.236328 L 7.2695312 15.666016 C 7.2408513 15.709516 7.2462151 15.767787 7.2832031 15.804688 L 8.1367188 16.652344 C 8.1727187 16.688044 8.2282847 16.692116 8.2714844 16.666016 L 9.7480469 15.775391 C 10.112727 15.993367 10.510513 16.160177 10.933594 16.265625 L 11.279297 17.912109 C 11.290097 17.962909 11.332367 18 11.384766 18 L 12.591797 18 C 12.642197 18 12.685267 17.966869 12.697266 17.917969 L 13.107422 16.259766 C 13.533862 16.149294 13.930955 15.970962 14.296875 15.746094 L 15.779297 16.710938 C 15.823097 16.739137 15.880769 16.733566 15.917969 16.697266 L 16.767578 15.851562 C 16.803578 15.815862 16.811556 15.759702 16.785156 15.716797 L 16.205078 14.769531 L 16.015625 14.828125 C 15.988025 14.836525 15.957606 14.824521 15.941406 14.800781 C 15.941406 14.800781 15.761957 14.556697 15.619141 14.363281 C 15.559571 14.272641 15.068312 13.675516 14.728516 13.242188 A 3 3 0 0 1 12 15 A 3 3 0 0 1 9 12 A 3 3 0 0 1 10.400391 9.4648438 L 10.400391 7.875 C 10.177241 7.957948 10.030512 8.0593415 9.8261719 8.1757812 L 8.3496094 7.2167969 C 8.3277094 7.2023969 8.30555 7.1987719 8.28125 7.2011719 z"/>
</svg>
